icons/svg/facebook.svg

<svg width="24" height="24" viewBox="0 0 24 24" fill="none" xmlns="http://www.w3.org/2000/svg">
<path d="M10.4775 21.1253C10.9728 21.2073 11.4814 21.25 12 21.25C12.5159 21.25 13.0219 21.2078 13.5148 21.1266M10.4775 21.1253C6.09327 20.3993 2.75 16.5901 2.75 12C2.75 6.89137 6.89137 2.75 12 2.75C17.1086 2.75 21.25 6.89137 21.25 12C21.25 16.5928 17.9028 20.4037 13.5148 21.1266M10.4775 21.1253V16.12H8.58C8.24862 16.12 7.98 15.8514 7.98 15.52V13.6822C7.98 13.3508 8.24862 13.0822 8.58 13.0822H10.4775V9.9505C10.4775 8.29365 11.8207 6.9505 13.4775 6.9505H15.2867C15.8389 6.9505 16.2867 7.39822 16.2867 7.9505V8.99002C16.2867 9.54231 15.8389 9.99002 15.2867 9.99002H14.5148C13.9625 9.99002 13.5148 10.4377 13.5148 10.99V13.0822H15.8122C16.1828 13.0822 16.4648 13.4148 16.4041 13.7804L16.1547 15.2837C16.0746 15.7662 15.6573 16.12 15.1681 16.12H13.5148V21.1266" stroke="currentColor" stroke-width="1.5" stroke-linecap="round"/>
</svg>

<svg xmlns="http://www.w3.org/2000/svg" width="24" height="24" fill="none" viewBox="0 0 24 24"><path stroke="currentColor" stroke-linecap="round" stroke-width="1.5" d="M10.478 21.125a9.3 9.3 0 0 0 3.037.002m-3.038-.002A9.25 9.25 0 0 1 2.75 12a9.25 9.25 0 1 1 10.765 9.127m-3.038-.002V16.12H8.58a.6.6 0 0 1-.6-.6v-1.838a.6.6 0 0 1 .6-.6h1.897V9.95a3 3 0 0 1 3-3h1.81a1 1 0 0 1 1 1v1.04a1 1 0 0 1-1 1h-.772a1 1 0 0 0-1 1v2.092h2.297a.6.6 0 0 1 .592.698l-.25 1.504a1 1 0 0 1-.986.836h-1.653v5.007"/></svg>
